X:191
T:Vicar & Moses
M:6/8
L:1/8
B:Thompson's Compleat Collection of 200 Favourite Country Dances, vol. 3 (London, 1773)
Z:Transcribed and edited by Flynn Titford-Mock, 2007
Z:abc's:AK/Fiddler's Companion
K:F
F2c cAc | dBd f3 | F2c cAF | E2F GE[Cc] | F2c cAF | dBd g2f | edc dc=B | c3 [C3c3] :|
|: E3 BGE BGE | E3 BGE AFD | E3 BGE BGE | FGA dcd AFD :|

